ZKTeco/img/logo.svg

<svg width="166" height="40" viewBox="0 0 166 40" fill="none" xmlns="http://www.w3.org/2000/svg">
<path d="M54 0H45L37.6154 32.8205H12.0577L38.5 7.17949H38.3848L40 0H9.5L7.88477 7.17949H26.5L0.5 32.8205L0.614278 32.8317L0 40H45L47.7307 27.8635L55.1515 22.0009L62 40H72.5L63.0475 15.7629L83 0H71L50.2079 16.8538L54 0Z" fill="white"/>
<path d="M116.574 0H83.2146L74 7.17949H93.5442L84.109 40H93.2072L102.642 7.17949H114.942L116.574 0Z" fill="#78BC27"/>
<path d="M108.58 18.4615H126.776L125.556 23.5897H107.36L108.58 18.4615Z" fill="#78BC27"/>
<path d="M104.327 38.9744L107.127 26.6667H119.7L118.48 31.7949H111.015L110.548 33.8462H122.733L121.513 38.9744H104.327Z" fill="#78BC27"/>
<path d="M132.946 18.4615C130.671 18.4615 128.676 20.0041 128.073 22.23L127.704 23.5897H139.386C140.055 23.5897 140.54 24.2385 140.359 24.8927L139.868 26.6667H145.066L145.884 23.6519C146.592 21.0402 144.655 18.4615 141.985 18.4615H132.946Z" fill="#78BC27"/>
<path d="M143.676 31.7949H138.448L138.088 33.0978C137.965 33.5404 137.567 33.8462 137.114 33.8462H130.934C130.264 33.8462 129.779 33.1974 129.96 32.5432L131.587 26.6667H126.87L124.941 33.784C124.233 36.3957 126.17 38.9744 128.84 38.9744H138.649C140.469 38.9744 142.065 37.7403 142.548 35.9596L143.676 31.7949Z" fill="#78BC27"/>
<path d="M148.042 22.23C148.645 20.0041 150.64 18.4615 152.916 18.4615H161.954C164.624 18.4615 166.561 21.0402 165.853 23.6519L162.517 35.9596C162.034 37.7403 160.438 38.9744 158.618 38.9744H148.809C146.139 38.9744 144.202 36.3957 144.91 33.784L146.84 26.6667H151.556L149.93 32.5432C149.749 33.1974 150.233 33.8462 150.903 33.8462H157.084C157.537 33.8462 157.934 33.5404 158.057 33.0978L160.328 24.8927C160.509 24.2385 160.025 23.5897 159.355 23.5897H147.674L148.042 22.23Z" fill="#78BC27"/>
</svg>

<svg width="166" height="40" fill="none" xmlns="http://www.w3.org/2000/svg"><path d="M54 0h-9l-7.385 32.82H12.058L38.5 7.18h-.115L40 0H9.5L7.885 7.18H26.5L.5 32.82l.114.012L0 40h45l2.73-12.137 7.422-5.862L62 40h10.5l-9.453-24.237L83 0H71L50.208 16.854 54 0z" fill="#fff"/><path d="M116.574 0h-33.36L74 7.18h19.544L84.11 40h9.098l9.435-32.82h12.3L116.574 0zm-7.994 18.462h18.196l-1.22 5.128H107.36l1.22-5.128zm-4.253 20.512l2.8-12.307H119.7l-1.22 5.128h-7.465l-.467 2.051h12.185l-1.22 5.128h-17.186zm28.619-20.512c-2.275 0-4.27 1.542-4.873 3.768l-.369 1.36h11.682c.669 0 1.154.648.973 1.303l-.491 1.774h5.198l.818-3.015c.708-2.612-1.229-5.19-3.899-5.19h-9.039zm10.73 13.333h-5.228l-.36 1.303a1.015 1.015 0 01-.974.748h-6.18c-.67 0-1.155-.649-.974-1.303l1.627-5.876h-4.717l-1.929 7.117c-.708 2.612 1.229 5.19 3.899 5.19h9.809c1.82 0 3.416-1.234 3.899-3.014l1.128-4.165zm4.366-9.565c.603-2.226 2.598-3.768 4.874-3.768h9.038c2.67 0 4.607 2.578 3.899 5.19l-3.336 12.308c-.483 1.78-2.079 3.014-3.899 3.014h-9.809c-2.67 0-4.607-2.578-3.899-5.19l1.93-7.117h4.716l-1.626 5.876c-.181.654.303 1.303.973 1.303h6.181c.453 0 .85-.306.973-.748l2.271-8.205c.181-.655-.303-1.303-.973-1.303h-11.681l.368-1.36z" fill="#78BC27"/></svg>
